src/lib/packages/icons/src/assets/filled/comment-text-times.svg

<svg width="24" height="24" viewBox="0 0 24 24" fill="none" xmlns="http://www.w3.org/2000/svg">
<path d="M12 4C7.03 4 3 6.99998 3 12.001C3 14.121 3.72995 15.892 4.94995 17.212C4.79995 18.172 4.25992 19.272 3.16992 20.152C2.83992 20.432 3.02996 20.9819 3.45996 20.9919C4.87996 21.0419 7.06991 20.852 8.40991 19.422C9.50991 19.802 10.72 20.002 12 20.002C12.68 20.002 13.3461 19.944 13.9861 19.828C14.1641 19.796 14.262 19.611 14.21 19.437C14.074 18.987 14.002 18.5119 14.001 18.0179C13.993 15.6139 15.7601 13.463 18.1321 13.072C18.9921 12.93 19.819 13.002 20.575 13.25C20.702 13.292 20.919 13.213 20.948 12.983C20.981 12.665 21.001 12.34 21.001 11.999C21 7.00002 16.97 4 12 4ZM13 14.75H8C7.586 14.75 7.25 14.414 7.25 14C7.25 13.586 7.586 13.25 8 13.25H13C13.414 13.25 13.75 13.586 13.75 14C13.75 14.414 13.414 14.75 13 14.75ZM16 10.75H8C7.586 10.75 7.25 10.414 7.25 10C7.25 9.586 7.586 9.25 8 9.25H16C16.414 9.25 16.75 9.586 16.75 10C16.75 10.414 16.414 10.75 16 10.75ZM21.53 19.47C21.823 19.763 21.823 20.238 21.53 20.531C21.384 20.677 21.192 20.751 21 20.751C20.808 20.751 20.616 20.678 20.47 20.531L19 19.061L17.53 20.531C17.384 20.677 17.192 20.751 17 20.751C16.808 20.751 16.616 20.678 16.47 20.531C16.177 20.238 16.177 19.763 16.47 19.47L17.9399 18L16.47 16.53C16.177 16.237 16.177 15.762 16.47 15.469C16.763 15.176 17.238 15.176 17.531 15.469L19.001 16.939L20.4709 15.469C20.7639 15.176 21.239 15.176 21.532 15.469C21.825 15.762 21.825 16.237 21.532 16.53L20.062 18L21.53 19.47Z" fill="currentColor"/>
</svg>

<svg xmlns="http://www.w3.org/2000/svg" width="24" height="24" fill="none"><path fill="currentColor" d="M12 4c-4.97 0-9 3-9 8.001 0 2.12.73 3.891 1.95 5.211-.15.96-.69 2.06-1.78 2.94-.33.28-.14.83.29.84 1.42.05 3.61-.14 4.95-1.57 1.1.38 2.31.58 3.59.58.68 0 1.346-.058 1.986-.174.178-.032.276-.217.224-.391a4.925 4.925 0 0 1-.209-1.42c-.008-2.403 1.76-4.554 4.131-4.945a5.115 5.115 0 0 1 2.443.178c.127.042.344-.037.373-.267.033-.318.053-.643.053-.984C21 7 16.97 4 12 4Zm1 10.75H8a.75.75 0 0 1 0-1.5h5a.75.75 0 0 1 0 1.5Zm3-4H8a.75.75 0 0 1 0-1.5h8a.75.75 0 0 1 0 1.5Zm5.53 8.72a.75.75 0 0 1-1.06 1.061L19 19.061l-1.47 1.47a.748.748 0 0 1-1.06 0 .75.75 0 0 1 0-1.061L17.94 18l-1.47-1.47a.75.75 0 1 1 1.061-1.061l1.47 1.47 1.47-1.47a.75.75 0 0 1 1.061 1.061L20.062 18l1.468 1.47Z"/></svg>
